X: 36956
T: Shputnik In Glenshiel
R: reel
M: 4/4
K: Bminor
|:ABBA B2 AB|deed e2 de|fedf edBA:|
|:cFFB FBFF|cFFF eFFB|FBFF cFFF:|
|:ze ed BBAB|deed zf ed|cded BAAA:|
|:zc cF ABBA|Bcef zf BA|AFFF ABBA:|

